X:1
T:King of the Fairies
M:4/4
L:1/8
R:hornpipe
K:Edor
B,2 | EDEF GFGA | B2BA GFGA | B2E2 EFGE | FGFE D2B,2 |
EDEF GFGA | BA (3GAB d2=c2 | B2E2 GFED | E2 ED E2 ::
(3Bcd | e2B2 Bdef | gagf edef | e2B2 BABc | dedc BcdB |
e2B2 Bdef | gagf e4 | Bdeg fedf | e2 ed e2 ef |
| g3e f3d | edBc d3e | dBAF GABc | dBAF GFED |
B,2E2 EFGA | B2e2 e3f | e2B2 BAGF | E2 ED E2 :|

